resources/images/gift.svg

<svg xmlns="http://www.w3.org/2000/svg" xmlns:xlink="http://www.w3.org/1999/xlink" preserveAspectRatio="none" width="285" height="427" viewBox="0 0 285 427"><defs><g id="a"><path fill="#517AC8" d="M58.45 150.05Q33.6 136.7 7.2 123.4l9.5 160.7q21.75 16.15 44.15 31.35-3.3-65.15-2.4-165.4m78.2 44.25q-29.2-17.5-61.15-35-2.6 86.7.8 166.5 27.75 18.35 56.45 35.3l3.9-166.8z"/><path fill="#DA1414" d="M58.45 150.05l17.05 9.2q31.5-17.9 60.25-31.5-1.05-1.65-1.9-3.4l-1.85-.6q-15.4 2-28.75 2.95-22.45 10.85-44.8 23.35m73.55-26.3l1.85.6q-.2-.4-.35-.8-.8.1-1.5.2m-37-36.8q-.45-.15-.85-.35-9.3 2.35-15.8 6.2 21.5 4.35 51.6 19.1-.1-.45-.15-.85l6.3-.45q1.95-1.3 4.3-2.2-22-11.15-45.4-21.45m107.6 75.85l17.65-7.8h-.05q-22.5-15.15-47.05-29.05-6.95.05-14.45-.1.05 1.6-.2 3.3l-12.1.85q-.15.05-.3.15 28.45 15.55 56.5 32.65M194 89.6q-.4.15-.85.3-23.25 7.8-46.4 17.35l2.85 2.45.2-.05q.4.35.8.75 32.2-13.5 51.75-17.45-3.8-1.8-8.35-3.35z"/><path fill="#AB1010" d="M75.5 159.25l-17.05-9.2q-.9 100.25 2.4 165.4v.1l7.9 5.25 7.1 4.7q.25.15.45.3-3.4-79.8-.8-166.5v-.05z"/><path fill="#9EADE9" d="M39.6 109.95L7.2 123.4q26.4 13.3 51.25 26.65 22.35-12.5 44.8-23.35-44.25 3.1-65.95-5.75.2-2 .95-3.65.45-4 1.35-7.35m163 52.9v-.05q-28.05-17.1-56.5-32.65-1.4.7-2.8 1.25l-1.3-1.1-4.25.25q-1.05-1.35-2-2.8-28.75 13.6-60.25 31.5v.05q31.95 17.5 61.15 35 32.75-16.4 65.95-31.45m-134.55-57.2q-11.65-.6-20.45 2.95 17.75 7.35 49.1 6.75 1.15-.1 4.35-1.5-21.25-7.6-33-8.2M144.5 66.4L95 86.95q23.4 10.3 45.4 21.45 2.65-1.1 5.8-1.65l.55.5q23.15-9.55 46.4-17.35L144.5 66.4m80.25 38.7l-.85-.4q-6.35-.55-15.2.9-11.1 1.65-25.8 6.35 22.55.8 41.85-6.85m13.4 6.5q.6 1.35.9 3-21.7 10.9-65.9 11.35 24.55 13.9 47.05 29.05 28.65-12.65 57.6-24.3l-39.65-19.1z"/><path fill="#728DD6" d="M192.2 330.7l-.45.2q8.25-85.85 10.85-168.05-33.2 15.05-65.95 31.45l-3.9 166.8q30.35-15 59.45-30.4m28-175.7h.05q-3.85 81.35-11.85 167 27.45-14.85 53.8-30.1l15.6-161.2q-28.95 11.65-57.6 24.3z"/><path fill="#EE1717" d="M143.3 131.4q1.4-.55 2.8-1.25.15-.1.3-.15l-2.35.15q-.4.6-.75 1.25m-1.3-1.1l1.3 1.1q.35-.65.75-1.25l-2.05.15m-12.05-18.4q.35 2 .8 3.9.9 3.7 2.35 6.95.15.3.3.65.05.05.1.15.15.4.35.8l3.6 1.15-3.6-1.15q.85 1.75 1.9 3.4.95 1.45 2 2.8.15-1.95.15-3.75-.1-9.2-4.95-13.6-1.4-1.3-3.15-2.15.05.4.15.85m.8 3.9q-1.1 1.5-1.95 3.3l4.3 3.65q-1.45-3.25-2.35-6.95m26.2 2.95q1.55-.3 3.15-.15l-8.35-7.1q3.45 3.5 5.2 7.25m3.15-.15q-1.6-.15-3.15.15.55 1.15.95 2.35.05-.1.1-.15 1.05-1.15 2.1-2.35m-10.5-8.9l-2.85-2.45-.55-.5q-3.15.55-5.8 1.65-2.35.9-4.3 2.2l13.5-.9m1 .7q-.4-.4-.8-.75l-.2.05-13.5.9-6.3.45q1.75.85 3.15 2.15 4.85 4.4 4.95 13.6 0 1.8-.15 3.75l4.25-.25 2.05-.15 2.35-.15 12.1-.85q.25-1.7.2-3.3-.1-2.45-.8-4.75-.4-1.2-.95-2.35-1.75-3.75-5.2-7.25-.55-.55-1.15-1.1M78.35 92.8q-6.1-1.3-11.55-1.7-21.8-1.7-27.2 18.85-.9 3.35-1.35 7.35 2.85-4.75 9.35-8.7 8.8-3.55 20.45-2.95 11.75.6 33 8.2l32.35 9.55q-.15-.35-.3-.65l-4.3-3.65q.85-1.8 1.95-3.3-.45-1.9-.8-3.9-30.1-14.75-51.6-19.1m125.75-.2q-.85.15-1.75.35-19.55 3.95-51.75 17.45.6.55 1.15 1.1l8.35 7.1q-1.05 1.2-2.1 2.35 1.8-.75 3.6-1.4 11.45-4.45 21.3-7.6 14.7-4.7 25.8-6.35 8.85-1.45 15.2-.9.75.05 1.45.15 9 .95 12.5 6.15-5.35-23.75-33.75-18.4z"/><path fill="#F04A4A" d="M133.5 123.55q-.05-.1-.1-.15l-32.35-9.55 30.95 9.9q.7-.1 1.5-.2m-95.25-6.25q-.75 1.65-.95 3.65 21.7 8.85 65.95 5.75 13.35-.95 28.75-2.95l-30.95-9.9q-3.2 1.4-4.35 1.5-31.35.6-49.1-6.75-6.5 3.95-9.35 8.7m199.9-5.7l-.3-.6q-3.5-5.2-12.5-6.15-.3.15-.6.25-19.3 7.65-41.85 6.85-9.85 3.15-21.3 7.6-1.8.65-3.6 1.4-.05.05-.1.15.7 2.3.8 4.75 7.5.15 14.45.1 44.2-.45 65.9-11.35-.3-1.65-.9-3z"/><path fill="#B11" d="M202.6 162.8v.05q-2.6 82.2-10.85 168.05l.45-.2 1.3-.7 14.9-7.9v-.1q8-85.65 11.85-167l-17.65 7.8z"/></g><path id="b" stroke="#0E1241" stroke-width="2" stroke-linejoin="round" stroke-linecap="round" fill="none" d="M238.15 111.6l39.65 19.1-15.6 161.2q-26.35 15.25-53.8 30.1m-14.9 8l-1.3.7q-29.1 15.4-59.45 30.4-28.7-16.95-56.45-35.3m-7.55-5l7.1 4.7m-15-10.05q-22.4-15.2-44.15-31.35L7.2 123.4l32.4-13.45m55.4-23l49.5-20.55 48.65 23.5M220.2 155q28.65-12.65 57.6-24.3m-53.05-25.6l-.85-.4M75.5 159.3q31.95 17.5 61.15 35 32.75-16.4 65.95-31.45M7.2 123.4q26.4 13.3 51.25 26.65m74.3 211.05l3.9-166.8"/><path id="c" stroke="#4B0505" stroke-width="2" stroke-linejoin="round" stroke-linecap="round" fill="none" d="M193.15 89.9q.45-.15.85-.3 4.55 1.55 8.35 3.35.9-.2 1.75-.35 28.4-5.35 33.75 18.4l.3.6M208.4 322v.1l-14.9 7.9m-117.65-4.5q.25.15.45.3m-7.55-5l-7.9-5.25v-.1M39.6 109.95Q45 89.4 66.8 91.1q5.45.4 11.55 1.7 6.5-3.85 15.8-6.2.4.2.85.35m98.15 2.95q-23.25 7.8-46.4 17.35l2.85 2.45.2-.05q.4.35.8.75 32.2-13.5 51.75-17.45m-29.2 33q44.2-.45 65.9-11.35-.3-1.65-.9-3m-.3-.6q-3.5-5.2-12.5-6.15-.3.15-.6.25-19.3 7.65-41.85 6.85-9.85 3.15-21.3 7.6-1.8.65-3.6 1.4-.05.05-.1.15.7 2.3.8 4.75 7.5.15 14.45.1 24.55 13.9 47.05 29.05m3.7-50.3q-6.35-.55-15.2.9-11.1 1.65-25.8 6.35m42.45-7.1q-.7-.1-1.45-.15m-21.3 58.15v-.05q-28.05-17.1-56.5-32.65-1.4.7-2.8 1.25l-1.3-1.1-4.25.25q-1.05-1.35-2-2.8-28.75 13.6-60.25 31.5v.05m127.1 3.55q-2.6 82.2-10.85 168.05l.45-.2m28-175.7h.05M47.6 108.6q8.8-3.55 20.45-2.95 11.75.6 33 8.2l32.35 9.55q-.15-.35-.3-.65l-4.3-3.65q.85-1.8 1.95-3.3-.45-1.9-.8-3.9-30.1-14.75-51.6-19.1M39.6 109.95q-.9 3.35-1.35 7.35-.75 1.65-.95 3.65 21.7 8.85 65.95 5.75 13.35-.95 28.75-2.95l-30.95-9.9q-3.2 1.4-4.35 1.5-31.35.6-49.1-6.75-6.5 3.95-9.35 8.7m22.6 198.15q-3.3-65.15-2.4-165.4 22.35-12.5 44.8-23.35m43.5-19.45l-.55-.5q-3.15.55-5.8 1.65-2.35.9-4.3 2.2l13.5-.9m8.4 11.25q1.05-1.15 2.1-2.35-1.6-.15-3.15.15.55 1.15.95 2.35m-7.3-10.7q.6.55 1.15 1.1l8.35 7.1m-8.35-7.1q3.45 3.5 5.2 7.25m-23.45 4.8q-.05-.1-.1-.15m-3.45-11.5q-.1-.45-.15-.85l6.3-.45m-3 12.15q-1.45-3.25-2.35-6.95m7 14.75q.15-1.95.15-3.75-.1-9.2-4.95-13.6-1.4-1.3-3.15-2.15m7.65 14.45l-3.6-1.15-1.85-.6m1.85.6q-.2-.4-.35-.8-.8.1-1.5.2m3.75 4q-1.05-1.65-1.9-3.4m24.85 1.5q.05 1.6-.2 3.3l-12.1.85q-.15.05-.3.15m-2.8 1.25q.35-.65.75-1.25l-2.05.15m4.4-.3l-2.35.15M95 86.95q23.4 10.3 45.4 21.45m79.85 46.6q-3.85 81.35-11.85 167M75.5 159.3q-2.6 86.7.8 166.5"/></defs><g><use xlink:href="#a"/><use xlink:href="#b"/><use xlink:href="#c"/></g></svg>

<svg xmlns="http://www.w3.org/2000/svg" version="1.1" xmlns:xlink="http://www.w3.org/1999/xlink" preserveAspectRatio="none" x="0px" y="0px" width="285px" height="427px" viewBox="0 0 285 427">
<defs>
<g id="Layer0_0_FILL">
<path fill="#517AC8" stroke="none" d="
M 58.45 150.05
Q 33.6 136.7 7.2 123.4
L 16.7 284.1
Q 38.45 300.25 60.85 315.45 57.55 250.3 58.45 150.05
M 136.65 194.3
Q 107.45 176.8 75.5 159.3 72.9 246 76.3 325.8 104.05 344.15 132.75 361.1
L 136.65 194.3 Z"/>

<path fill="#DA1414" stroke="none" d="
M 58.45 150.05
L 75.5 159.25
Q 107 141.35 135.75 127.75 134.7 126.1 133.85 124.35
L 132 123.75
Q 116.6 125.75 103.25 126.7 80.8 137.55 58.45 150.05
M 132 123.75
L 133.85 124.35
Q 133.65 123.95 133.5 123.55 132.7 123.65 132 123.75
M 95 86.95
Q 94.55 86.8 94.15 86.6 84.85 88.95 78.35 92.8 99.85 97.15 129.95 111.9 129.85 111.45 129.8 111.05
L 136.1 110.6
Q 138.05 109.3 140.4 108.4 118.4 97.25 95 86.95
M 202.6 162.8
L 220.25 155 220.2 155
Q 197.7 139.85 173.15 125.95 166.2 126 158.7 125.85 158.75 127.45 158.5 129.15
L 146.4 130
Q 146.25 130.05 146.1 130.15 174.55 145.7 202.6 162.8
M 194 89.6
Q 193.6 89.75 193.15 89.9 169.9 97.7 146.75 107.25
L 149.6 109.7 149.8 109.65
Q 150.2 110 150.6 110.4 182.8 96.9 202.35 92.95 198.55 91.15 194 89.6 Z"/>

<path fill="#AB1010" stroke="none" d="
M 75.5 159.25
L 58.45 150.05
Q 57.55 250.3 60.85 315.45 60.85 315.5 60.85 315.55
L 68.75 320.8 75.85 325.5
Q 76.1 325.65 76.3 325.8 72.9 246 75.5 159.3
L 75.5 159.25 Z"/>

<path fill="#9EADE9" stroke="none" d="
M 39.6 109.95
L 7.2 123.4
Q 33.6 136.7 58.45 150.05 80.8 137.55 103.25 126.7 59 129.8 37.3 120.95 37.5 118.95 38.25 117.3 38.7 113.3 39.6 109.95
M 202.6 162.85
L 202.6 162.8
Q 174.55 145.7 146.1 130.15 144.7 130.85 143.3 131.4
L 142 130.3 137.75 130.55
Q 136.7 129.2 135.75 127.75 107 141.35 75.5 159.25
L 75.5 159.3
Q 107.45 176.8 136.65 194.3 169.4 177.9 202.6 162.85
M 68.05 105.65
Q 56.4 105.05 47.6 108.6 65.35 115.95 96.7 115.35 97.85 115.25 101.05 113.85 79.8 106.25 68.05 105.65
M 144.5 66.4
L 95 86.95
Q 118.4 97.25 140.4 108.4 143.05 107.3 146.2 106.75
L 146.75 107.25
Q 169.9 97.7 193.15 89.9
L 144.5 66.4
M 224.75 105.1
L 223.9 104.7
Q 217.55 104.15 208.7 105.6 197.6 107.25 182.9 111.95 205.45 112.75 224.75 105.1
M 238.15 111.6
Q 238.75 112.95 239.05 114.6 217.35 125.5 173.15 125.95 197.7 139.85 220.2 155 248.85 142.35 277.8 130.7
L 238.15 111.6 Z"/>

<path fill="#728DD6" stroke="none" d="
M 192.2 330.7
L 191.75 330.9
Q 200 245.05 202.6 162.85 169.4 177.9 136.65 194.3
L 132.75 361.1
Q 163.1 346.1 192.2 330.7
M 220.2 155
L 220.25 155
Q 216.4 236.35 208.4 322 235.85 307.15 262.2 291.9
L 277.8 130.7
Q 248.85 142.35 220.2 155 Z"/>

<path fill="#EE1717" stroke="none" d="
M 143.3 131.4
Q 144.7 130.85 146.1 130.15 146.25 130.05 146.4 130
L 144.05 130.15
Q 143.65 130.75 143.3 131.4
M 142 130.3
L 143.3 131.4
Q 143.65 130.75 144.05 130.15
L 142 130.3
M 129.95 111.9
Q 130.3 113.9 130.75 115.8 131.65 119.5 133.1 122.75 133.25 123.05 133.4 123.4 133.45 123.45 133.5 123.55 133.65 123.95 133.85 124.35
L 137.45 125.5 133.85 124.35
Q 134.7 126.1 135.75 127.75 136.7 129.2 137.75 130.55 137.9 128.6 137.9 126.8 137.8 117.6 132.95 113.2 131.55 111.9 129.8 111.05 129.85 111.45 129.95 111.9
M 130.75 115.8
Q 129.65 117.3 128.8 119.1
L 133.1 122.75
Q 131.65 119.5 130.75 115.8
M 156.95 118.75
Q 158.5 118.45 160.1 118.6
L 151.75 111.5
Q 155.2 115 156.95 118.75
M 160.1 118.6
Q 158.5 118.45 156.95 118.75 157.5 119.9 157.9 121.1 157.95 121 158 120.95 159.05 119.8 160.1 118.6
M 149.6 109.7
L 146.75 107.25 146.2 106.75
Q 143.05 107.3 140.4 108.4 138.05 109.3 136.1 110.6
L 149.6 109.7
M 150.6 110.4
Q 150.2 110 149.8 109.65
L 149.6 109.7 136.1 110.6 129.8 111.05
Q 131.55 111.9 132.95 113.2 137.8 117.6 137.9 126.8 137.9 128.6 137.75 130.55
L 142 130.3 144.05 130.15 146.4 130 158.5 129.15
Q 158.75 127.45 158.7 125.85 158.6 123.4 157.9 121.1 157.5 119.9 156.95 118.75 155.2 115 151.75 111.5 151.2 110.95 150.6 110.4
M 78.35 92.8
Q 72.25 91.5 66.8 91.1 45 89.4 39.6 109.95 38.7 113.3 38.25 117.3 41.1 112.55 47.6 108.6 56.4 105.05 68.05 105.65 79.8 106.25 101.05 113.85
L 133.4 123.4
Q 133.25 123.05 133.1 122.75
L 128.8 119.1
Q 129.65 117.3 130.75 115.8 130.3 113.9 129.95 111.9 99.85 97.15 78.35 92.8
M 204.1 92.6
Q 203.25 92.75 202.35 92.95 182.8 96.9 150.6 110.4 151.2 110.95 151.75 111.5
L 160.1 118.6
Q 159.05 119.8 158 120.95 159.8 120.2 161.6 119.55 173.05 115.1 182.9 111.95 197.6 107.25 208.7 105.6 217.55 104.15 223.9 104.7 224.65 104.75 225.35 104.85 234.35 105.8 237.85 111 232.5 87.25 204.1 92.6 Z"/>

<path fill="#F04A4A" stroke="none" d="
M 133.5 123.55
Q 133.45 123.45 133.4 123.4
L 101.05 113.85 132 123.75
Q 132.7 123.65 133.5 123.55
M 38.25 117.3
Q 37.5 118.95 37.3 120.95 59 129.8 103.25 126.7 116.6 125.75 132 123.75
L 101.05 113.85
Q 97.85 115.25 96.7 115.35 65.35 115.95 47.6 108.6 41.1 112.55 38.25 117.3
M 238.15 111.6
Q 238 111.3 237.85 111 234.35 105.8 225.35 104.85 225.05 105 224.75 105.1 205.45 112.75 182.9 111.95 173.05 115.1 161.6 119.55 159.8 120.2 158 120.95 157.95 121 157.9 121.1 158.6 123.4 158.7 125.85 166.2 126 173.15 125.95 217.35 125.5 239.05 114.6 238.75 112.95 238.15 111.6 Z"/>

<path fill="#BB1111" stroke="none" d="
M 202.6 162.8
L 202.6 162.85
Q 200 245.05 191.75 330.9
L 192.2 330.7 193.5 330 208.4 322.1
Q 208.4 322.05 208.4 322 216.4 236.35 220.25 155
L 202.6 162.8 Z"/>
</g>

<path id="Layer0_0_1_STROKES" stroke="#0E1241" stroke-width="2" stroke-linejoin="round" stroke-linecap="round" fill="none" d="
M 238.15 111.6
L 277.8 130.7 262.2 291.9
Q 235.85 307.15 208.4 322
M 193.5 330
L 192.2 330.7
Q 163.1 346.1 132.75 361.1 104.05 344.15 76.3 325.8
M 68.75 320.8
L 75.85 325.5
M 60.85 315.45
Q 38.45 300.25 16.7 284.1
L 7.2 123.4 39.6 109.95
M 95 86.95
L 144.5 66.4 193.15 89.9
M 220.2 155
Q 248.85 142.35 277.8 130.7
M 224.75 105.1
L 223.9 104.7
M 75.5 159.3
Q 107.45 176.8 136.65 194.3 169.4 177.9 202.6 162.85
M 7.2 123.4
Q 33.6 136.7 58.45 150.05
M 132.75 361.1
L 136.65 194.3"/>

<path id="Layer0_0_2_STROKES" stroke="#4B0505" stroke-width="2" stroke-linejoin="round" stroke-linecap="round" fill="none" d="
M 193.15 89.9
Q 193.6 89.75 194 89.6 198.55 91.15 202.35 92.95 203.25 92.75 204.1 92.6 232.5 87.25 237.85 111 238 111.3 238.15 111.6
M 208.4 322
Q 208.4 322.05 208.4 322.1
L 193.5 330
M 75.85 325.5
Q 76.1 325.65 76.3 325.8
M 68.75 320.8
L 60.85 315.55
Q 60.85 315.5 60.85 315.45
M 39.6 109.95
Q 45 89.4 66.8 91.1 72.25 91.5 78.35 92.8 84.85 88.95 94.15 86.6 94.55 86.8 95 86.95
M 193.15 89.9
Q 169.9 97.7 146.75 107.25
L 149.6 109.7 149.8 109.65
Q 150.2 110 150.6 110.4 182.8 96.9 202.35 92.95
M 173.15 125.95
Q 217.35 125.5 239.05 114.6 238.75 112.95 238.15 111.6
M 237.85 111
Q 234.35 105.8 225.35 104.85 225.05 105 224.75 105.1 205.45 112.75 182.9 111.95 173.05 115.1 161.6 119.55 159.8 120.2 158 120.95 157.95 121 157.9 121.1 158.6 123.4 158.7 125.85 166.2 126 173.15 125.95 197.7 139.85 220.2 155
M 223.9 104.7
Q 217.55 104.15 208.7 105.6 197.6 107.25 182.9 111.95
M 225.35 104.85
Q 224.65 104.75 223.9 104.7
M 202.6 162.85
L 202.6 162.8
Q 174.55 145.7 146.1 130.15 144.7 130.85 143.3 131.4
L 142 130.3 137.75 130.55
Q 136.7 129.2 135.75 127.75 107 141.35 75.5 159.25
L 75.5 159.3
M 202.6 162.85
Q 200 245.05 191.75 330.9
L 192.2 330.7
M 220.2 155
L 220.25 155
M 47.6 108.6
Q 56.4 105.05 68.05 105.65 79.8 106.25 101.05 113.85
L 133.4 123.4
Q 133.25 123.05 133.1 122.75
L 128.8 119.1
Q 129.65 117.3 130.75 115.8 130.3 113.9 129.95 111.9 99.85 97.15 78.35 92.8
M 39.6 109.95
Q 38.7 113.3 38.25 117.3 37.5 118.95 37.3 120.95 59 129.8 103.25 126.7 116.6 125.75 132 123.75
L 101.05 113.85
Q 97.85 115.25 96.7 115.35 65.35 115.95 47.6 108.6 41.1 112.55 38.25 117.3
M 60.85 315.45
Q 57.55 250.3 58.45 150.05 80.8 137.55 103.25 126.7
M 146.75 107.25
L 146.2 106.75
Q 143.05 107.3 140.4 108.4 138.05 109.3 136.1 110.6
L 149.6 109.7
M 158 120.95
Q 159.05 119.8 160.1 118.6 158.5 118.45 156.95 118.75 157.5 119.9 157.9 121.1
M 150.6 110.4
Q 151.2 110.95 151.75 111.5
L 160.1 118.6
M 151.75 111.5
Q 155.2 115 156.95 118.75
M 133.5 123.55
Q 133.45 123.45 133.4 123.4
M 129.95 111.9
Q 129.85 111.45 129.8 111.05
L 136.1 110.6
M 133.1 122.75
Q 131.65 119.5 130.75 115.8
M 137.75 130.55
Q 137.9 128.6 137.9 126.8 137.8 117.6 132.95 113.2 131.55 111.9 129.8 111.05
M 137.45 125.5
L 133.85 124.35 132 123.75
M 133.85 124.35
Q 133.65 123.95 133.5 123.55 132.7 123.65 132 123.75
M 135.75 127.75
Q 134.7 126.1 133.85 124.35
M 158.7 125.85
Q 158.75 127.45 158.5 129.15
L 146.4 130
Q 146.25 130.05 146.1 130.15
M 143.3 131.4
Q 143.65 130.75 144.05 130.15
L 142 130.3
M 146.4 130
L 144.05 130.15
M 95 86.95
Q 118.4 97.25 140.4 108.4
M 220.25 155
Q 216.4 236.35 208.4 322
M 75.5 159.3
Q 72.9 246 76.3 325.8"/>
</defs>

<g transform="matrix( 1, 0, 0, 1, 0,0) ">
<use xlink:href="#Layer0_0_FILL"/>

<use xlink:href="#Layer0_0_1_STROKES"/>

<use xlink:href="#Layer0_0_2_STROKES"/>
</g>
</svg>
